chess-client/components/Chess/_/images/whiteKnight.svg

<svg viewBox="0 0 160 160" xmlns="http://www.w3.org/2000/svg"><g fill="#0078d7"><path d="M98.68 25.98c5.27-4.32 10.5-8.71 15.85-12.93-.02 8.31-.06 16.63-.02 24.95 2.91-.01 5.82.02 8.73-.03.45 2.31.34 4.67.37 7.01.26 16.34.51 32.67.76 49.01 1.54 0 3.08.01 4.63.02V110c-5.4 0-10.8-.01-16.2 0 3.44 7.34 6.87 14.68 10.33 22H137v16H41v-16h13.87c3.46-7.32 6.89-14.66 10.33-22-5.4-.01-10.8 0-16.2 0V94h12.16c4.56-5.55 9-11.21 13.58-16.75-11.58 1.61-23.16 3.3-34.73 4.96-2.01-7.91-4.02-15.82-6-23.73 15.12-10.8 30.23-21.61 45.31-32.46 6.46-.06 12.91.02 19.36-.04m1.34 4.02c-6.55.22-13.25-.43-19.71.31-13.97 9.87-27.83 19.91-41.75 29.85 1.46 5.86 2.95 11.71 4.44 17.57 13.74-1.94 27.47-3.96 41.22-5.91-5.95 7.4-11.94 14.77-17.89 22.17 18.01.02 36.03.01 54.04 0-.05-3.99-.12-7.99-.19-11.98-3.06-.01-6.12-.01-9.18-.01.01-1.34.01-2.67 0-4 3.04 0 6.08 0 9.12-.01l-.09-5.98c-3.01-.01-6.02-.02-9.03-.01.01-1.33 0-2.67 0-4h8.97l-.09-5.99c-2.96-.01-5.92-.02-8.88-.01.01-1.33.01-2.67 0-4 2.94.01 5.88 0 8.82-.01-.04-1.99-.07-3.98-.09-5.98-2.91-.01-5.82-.02-8.73-.01.01-1.33.01-2.67 0-4 2.89.01 5.78-.01 8.67-.01-.04-1.88-.07-3.75-.11-5.63-3.02 0-6.04-.01-9.05-.01-.02-6.97-.01-13.94-.01-20.92-3.49 2.87-6.97 5.73-10.48 8.57M53 98v8h72v-8H53m16.41 12.18c-3.16 7.36-6.77 14.53-10.1 21.82h59.38c-3.51-7.35-6.79-14.81-10.46-22.07-12.94.28-25.89-.22-38.82.25M45 136v8h88v-8H45z"/><path d="M82.37 45.39c3.11-1.63 6.85 2.1 5.25 5.22-1.07 2.76-5.3 3.17-6.86.65-1.46-1.9-.6-4.96 1.61-5.87z"/></g><path d="M100.02 30c3.51-2.84 6.99-5.7 10.48-8.57 0 6.98-.01 13.95.01 20.92 3.01 0 6.03.01 9.05.01.04 1.88.07 3.75.11 5.63-2.89 0-5.78.02-8.67.01.01 1.33.01 2.67 0 4 2.91-.01 5.82 0 8.73.01.02 2 .05 3.99.09 5.98-2.94.01-5.88.02-8.82.01.01 1.33.01 2.67 0 4 2.96-.01 5.92 0 8.88.01l.09 5.99H111c0 1.33.01 2.67 0 4 3.01-.01 6.02 0 9.03.01l.09 5.98c-3.04.01-6.08.01-9.12.01.01 1.33.01 2.66 0 4 3.06 0 6.12 0 9.18.01.07 3.99.14 7.99.19 11.98-18.01.01-36.03.02-54.04 0 5.95-7.4 11.94-14.77 17.89-22.17-13.75 1.95-27.48 3.97-41.22 5.91-1.49-5.86-2.98-11.71-4.44-17.57 13.92-9.94 27.78-19.98 41.75-29.85 6.46-.74 13.16-.09 19.71-.31M82.37 45.39c-2.21.91-3.07 3.97-1.61 5.87 1.56 2.52 5.79 2.11 6.86-.65 1.6-3.12-2.14-6.85-5.25-5.22zM53 98h72v8H53v-8zm16.41 12.18c12.93-.47 25.88.03 38.82-.25 3.67 7.26 6.95 14.72 10.46 22.07H59.31c3.33-7.29 6.94-14.46 10.1-21.82zM45 136h88v8H45v-8z" fill="#fff"/></svg>

<?xml version="1.0" encoding="UTF-8" ?>
<!DOCTYPE svg PUBLIC "-//W3C//DTD SVG 1.1//EN" "http://www.w3.org/Graphics/SVG/1.1/DTD/svg11.dtd">
<svg width="160pt" height="160pt" viewBox="0 0 160 160" version="1.1" xmlns="http://www.w3.org/2000/svg">
<g id="#0078d7ff">
<path fill="#0078d7" opacity="1.00" d=" M 98.68 25.98 C 103.95 21.66 109.18 17.27 114.53 13.05 C 114.51 21.36 114.47 29.68 114.51 38.00 C 117.42 37.99 120.33 38.02 123.24 37.97 C 123.69 40.28 123.58 42.64 123.61 44.98 C 123.87 61.32 124.12 77.65 124.37 93.99 C 125.91 93.99 127.45 94.00 129.00 94.01 C 129.00 99.34 129.00 104.67 129.00 110.00 C 123.60 110.00 118.20 109.99 112.80 110.00 C 116.24 117.34 119.67 124.68 123.13 132.00 C 127.75 132.00 132.38 132.00 137.00 132.00 C 137.00 137.33 137.00 142.67 137.00 148.00 C 105.00 148.00 73.00 148.00 41.00 148.00 C 41.00 142.67 41.00 137.33 41.00 132.00 C 45.62 132.00 50.25 132.00 54.87 132.00 C 58.33 124.68 61.76 117.34 65.20 110.00 C 59.80 109.99 54.40 110.00 49.00 110.00 C 49.00 104.67 49.00 99.33 49.00 94.00 C 53.06 94.00 57.11 94.00 61.16 94.00 C 65.72 88.45 70.16 82.79 74.74 77.25 C 63.16 78.86 51.58 80.55 40.01 82.21 C 38.00 74.30 35.99 66.39 34.01 58.48 C 49.13 47.68 64.24 36.87 79.32 26.02 C 85.78 25.96 92.23 26.04 98.68 25.98 M 100.02 30.00 C 93.47 30.22 86.77 29.57 80.31 30.31 C 66.34 40.18 52.48 50.22 38.56 60.16 C 40.02 66.02 41.51 71.87 43.00 77.73 C 56.74 75.79 70.47 73.77 84.22 71.82 C 78.27 79.22 72.28 86.59 66.33 93.99 C 84.34 94.01 102.36 94.00 120.37 93.99 C 120.32 90.00 120.25 86.00 120.18 82.01 C 117.12 82.00 114.06 82.00 111.00 82.00 C 111.01 80.66 111.01 79.33 111.00 78.00 C 114.04 78.00 117.08 78.00 120.12 77.99 C 120.09 76.00 120.06 74.00 120.03 72.01 C 117.02 72.00 114.01 71.99 111.00 72.00 C 111.01 70.67 111.00 69.33 111.00 68.00 C 113.99 68.00 116.98 68.00 119.97 68.00 C 119.94 66.00 119.91 64.00 119.88 62.01 C 116.92 62.00 113.96 61.99 111.00 62.00 C 111.01 60.67 111.01 59.33 111.00 58.00 C 113.94 58.01 116.88 58.00 119.82 57.99 C 119.78 56.00 119.75 54.01 119.73 52.01 C 116.82 52.00 113.91 51.99 111.00 52.00 C 111.01 50.67 111.01 49.33 111.00 48.00 C 113.89 48.01 116.78 47.99 119.67 47.99 C 119.63 46.11 119.60 44.24 119.56 42.36 C 116.54 42.36 113.52 42.35 110.51 42.35 C 110.49 35.38 110.50 28.41 110.50 21.43 C 107.01 24.30 103.53 27.16 100.02 30.00 M 53.00 98.00 C 53.00 100.67 53.00 103.33 53.00 106.00 C 77.00 106.00 101.00 106.00 125.00 106.00 C 125.00 103.33 125.00 100.67 125.00 98.00 C 101.00 98.00 77.00 98.00 53.00 98.00 M 69.41 110.18 C 66.25 117.54 62.64 124.71 59.31 132.00 C 79.10 132.00 98.90 132.00 118.69 132.00 C 115.18 124.65 111.90 117.19 108.23 109.93 C 95.29 110.21 82.34 109.71 69.41 110.18 M 45.00 136.00 C 45.00 138.67 45.00 141.33 45.00 144.00 C 74.33 144.00 103.66 144.00 133.00 144.00 C 133.00 141.33 133.00 138.67 133.00 136.00 C 103.66 136.00 74.33 136.00 45.00 136.00 Z" />
<path fill="#0078d7" opacity="1.00" d=" M 82.37 45.39 C 85.48 43.76 89.22 47.49 87.62 50.61 C 86.55 53.37 82.32 53.78 80.76 51.26 C 79.30 49.36 80.16 46.30 82.37 45.39 Z" />
</g>
<g id="#ffffffff">
<path fill="#ffffff" opacity="1.00" d=" M 100.02 30.00 C 103.53 27.16 107.01 24.30 110.50 21.43 C 110.50 28.41 110.49 35.38 110.51 42.35 C 113.52 42.35 116.54 42.36 119.56 42.36 C 119.60 44.24 119.63 46.11 119.67 47.99 C 116.78 47.99 113.89 48.01 111.00 48.00 C 111.01 49.33 111.01 50.67 111.00 52.00 C 113.91 51.99 116.82 52.00 119.73 52.01 C 119.75 54.01 119.78 56.00 119.82 57.99 C 116.88 58.00 113.94 58.01 111.00 58.00 C 111.01 59.33 111.01 60.67 111.00 62.00 C 113.96 61.99 116.92 62.00 119.88 62.01 C 119.91 64.00 119.94 66.00 119.97 68.00 C 116.98 68.00 113.99 68.00 111.00 68.00 C 111.00 69.33 111.01 70.67 111.00 72.00 C 114.01 71.99 117.02 72.00 120.03 72.01 C 120.06 74.00 120.09 76.00 120.12 77.99 C 117.08 78.00 114.04 78.00 111.00 78.00 C 111.01 79.33 111.01 80.66 111.00 82.00 C 114.06 82.00 117.12 82.00 120.18 82.01 C 120.25 86.00 120.32 90.00 120.37 93.99 C 102.36 94.00 84.34 94.01 66.33 93.99 C 72.28 86.59 78.27 79.22 84.22 71.82 C 70.47 73.77 56.74 75.79 43.00 77.73 C 41.51 71.87 40.02 66.02 38.56 60.16 C 52.48 50.22 66.34 40.18 80.31 30.31 C 86.77 29.57 93.47 30.22 100.02 30.00 M 82.37 45.39 C 80.16 46.30 79.30 49.36 80.76 51.26 C 82.32 53.78 86.55 53.37 87.62 50.61 C 89.22 47.49 85.48 43.76 82.37 45.39 Z" />
<path fill="#ffffff" opacity="1.00" d=" M 53.00 98.00 C 77.00 98.00 101.00 98.00 125.00 98.00 C 125.00 100.67 125.00 103.33 125.00 106.00 C 101.00 106.00 77.00 106.00 53.00 106.00 C 53.00 103.33 53.00 100.67 53.00 98.00 Z" />
<path fill="#ffffff" opacity="1.00" d=" M 69.41 110.18 C 82.34 109.71 95.29 110.21 108.23 109.93 C 111.90 117.19 115.18 124.65 118.69 132.00 C 98.90 132.00 79.10 132.00 59.31 132.00 C 62.64 124.71 66.25 117.54 69.41 110.18 Z" />
<path fill="#ffffff" opacity="1.00" d=" M 45.00 136.00 C 74.33 136.00 103.66 136.00 133.00 136.00 C 133.00 138.67 133.00 141.33 133.00 144.00 C 103.66 144.00 74.33 144.00 45.00 144.00 C 45.00 141.33 45.00 138.67 45.00 136.00 Z" />
</g>
</svg>
